assets/img/icons/duotone-icons/Food/Coffee#1.svg

<?xml version="1.0" encoding="UTF-8"?>
<svg width="24px" height="24px" viewBox="0 0 24 24" version="1.1" xmlns="http://www.w3.org/2000/svg" xmlns:xlink="http://www.w3.org/1999/xlink">
    <!-- Generator: Sketch 52.2 (67145) - http://www.bohemiancoding.com/sketch -->
    <title>Stockholm-icons / Food / Coffee#1</title>
    <desc>Created with Sketch.</desc>
    <g id="Stockholm-icons-/-Food-/-Coffee#1" stroke="none" stroke-width="1" fill="none" fill-rule="evenodd">
        <rect id="bound" x="0" y="0" width="24" height="24"></rect>
        <path d="M8.40093151,17 L5,17 C3.34314575,17 2,15.1568542 2,13.5 C2,11.8431458 3.34314575,10 5,10 L6,10 L6,8 L21,8 L21,11.5 C21,15.6421356 17.6421356,19 13.5,19 C11.5309185,19 9.73907026,18.2411745 8.40093151,17 Z M6.86504659,15 C6.38614142,14.0940164 6.08736465,13.0781211 6.01640228,12 L5,12 C4.44771525,12 4,12.9477153 4,13.5 C4,14.0522847 4.44771525,15 5,15 L6.86504659,15 Z" id="Combined-Shape" fill="#335EEA"></path>
        <rect id="Rectangle" fill="#335EEA" opacity="0.3" x="6" y="21" width="15" height="2" rx="1"></rect>
        <path d="M8.11576273,0 L9.27322553,1.15267194 C8.41777098,2.01168201 8.42065331,3.40153019 9.27966338,4.25698473 C9.35322262,4.3302395 9.4318859,4.39818368 9.51506091,4.46030566 L10,4.82249831 L9.02250371,6.13126634 L8.53756462,5.76907368 C8.39249331,5.66072242 8.25529121,5.54221626 8.12699144,5.41444753 C6.62873232,3.92238985 6.62370505,1.49825912 8.11576273,0 Z" id="Path-44-Copy-2" fill="#335EEA" opacity="0.3"></path>
        <path d="M13.1157627,1 L14.2732255,2.15267194 C13.417771,3.01168201 13.4206533,4.40153019 14.2796634,5.25698473 C14.3532226,5.3302395 14.4318859,5.39818368 14.5150609,5.46030566 L15,5.82249831 L14.0225037,7.13126634 L13.5375646,6.76907368 C13.3924933,6.66072242 13.2552912,6.54221626 13.1269914,6.41444753 C11.6287323,4.92238985 11.6237051,2.49825912 13.1157627,1 Z" id="Path-44-Copy-3" fill="#335EEA" opacity="0.3"></path>
        <path d="M18.1157627,0 L19.2732255,1.15267194 C18.417771,2.01168201 18.4206533,3.40153019 19.2796634,4.25698473 C19.3532226,4.3302395 19.4318859,4.39818368 19.5150609,4.46030566 L20,4.82249831 L19.0225037,6.13126634 L18.5375646,5.76907368 C18.3924933,5.66072242 18.2552912,5.54221626 18.1269914,5.41444753 C16.6287323,3.92238985 16.6237051,1.49825912 18.1157627,0 Z" id="Path-44-Copy-4" fill="#335EEA" opacity="0.3"></path>
    </g>
</svg>

<svg width="24" height="24" viewBox="0 0 24 24" xmlns="http://www.w3.org/2000/svg"><g fill="none" fill-rule="evenodd"><path d="M0 0h24v24H0z"/><path d="M8.4 17H5c-1.657 0-3-1.843-3-3.5S3.343 10 5 10h1V8h15v3.5A7.5 7.5 0 018.4 17zm-1.535-2a7.455 7.455 0 01-.849-3H5c-.552 0-1 .948-1 1.5S4.448 15 5 15h1.865z" fill="#335EEA"/><rect fill="#335EEA" opacity=".3" x="6" y="21" width="15" height="2" rx="1"/><path d="M8.116 0l1.157 1.153a2.195 2.195 0 00.242 3.307l.485.362-.977 1.31-.485-.363A3.829 3.829 0 018.116 0zM13.116 1l1.157 1.153a2.195 2.195 0 00.242 3.307l.485.362-.977 1.31-.485-.363A3.829 3.829 0 0113.116 1zM18.116 0l1.157 1.153a2.195 2.195 0 00.242 3.307l.485.362-.977 1.31-.485-.363A3.829 3.829 0 0118.116 0z" fill="#335EEA" opacity=".3"/></g></svg>
